www/assets/images/test_icons/flags/KI.svg

<svg fill="none" height="15" viewBox="0 0 21 15" width="21" xmlns="http://www.w3.org/2000/svg" xmlns:xlink="http://www.w3.org/1999/xlink"><mask id="a" height="15" maskUnits="userSpaceOnUse" width="21" x="0" y="0"><path d="m19 0h-17c-1.10457 0-2 .89543-2 2v11c0 1.1046.89543 2 2 2h17c1.1046 0 2-.8954 2-2v-11c0-1.10457-.8954-2-2-2z" fill="#fff"/></mask><mask id="b" height="15" maskUnits="userSpaceOnUse" width="21" x="0" y="0"><path d="m19 .5h-17c-.82843 0-1.5.67157-1.5 1.5v11c0 .8284.67157 1.5 1.5 1.5h17c.8284 0 1.5-.6716 1.5-1.5v-11c0-.82843-.6716-1.5-1.5-1.5z" fill="#fff"/></mask><g mask="url(#a)"><path d="m19 0h-17c-1.10457 0-2 .89543-2 2v11c0 1.1046.89543 2 2 2h17c1.1046 0 2-.8954 2-2v-11c0-1.10457-.8954-2-2-2z" fill="#d0091e"/><path d="m10.5 11c1.933 0 3.5-1.567 3.5-3.5s-1.567-3.5-3.5-3.5-3.5 1.567-3.5 3.5 1.567 3.5 3.5 3.5z" fill="#fdd200"/><g clip-rule="evenodd" fill-rule="evenodd"><path d="m0 8h21v7h-21z" fill="#003d89"/><path d="m0 8h21v1h-21zm0 2h21v1h-21zm0 2h21v1h-21z" fill="#fff"/></g></g><g mask="url(#b)"><path d="m19 .5h-17c-.82843 0-1.5.67157-1.5 1.5v11c0 .8284.67157 1.5 1.5 1.5h17c.8284 0 1.5-.6716 1.5-1.5v-11c0-.82843-.6716-1.5-1.5-1.5z" stroke="#000" stroke-opacity=".1"/><path clip-rule="evenodd" d="m8 2 2.5 1 2.5-1z" fill="#fdd200" fill-rule="evenodd"/></g></svg>

<svg width="21" height="15" viewBox="0 0 21 15" fill="none" xmlns="http://www.w3.org/2000/svg">
<mask id="mask0_3_120" style="mask-type:alpha" maskUnits="userSpaceOnUse" x="0" y="0" width="21" height="15">
<path d="M19 0H2C0.89543 0 0 0.89543 0 2V13C0 14.1046 0.89543 15 2 15H19C20.1046 15 21 14.1046 21 13V2C21 0.89543 20.1046 0 19 0Z" fill="white"/>
</mask>
<g mask="url(#mask0_3_120)">
<path d="M19 0H2C0.89543 0 0 0.89543 0 2V13C0 14.1046 0.89543 15 2 15H19C20.1046 15 21 14.1046 21 13V2C21 0.89543 20.1046 0 19 0Z" fill="#D0091E"/>
<path d="M10.5 11C12.433 11 14 9.433 14 7.5C14 5.567 12.433 4 10.5 4C8.567 4 7 5.567 7 7.5C7 9.433 8.567 11 10.5 11Z" fill="#FDD200"/>
<path fill-rule="evenodd" clip-rule="evenodd" d="M0 8H21V15H0V8Z" fill="#003D89"/>
<path fill-rule="evenodd" clip-rule="evenodd" d="M0 8H21V9H0V8ZM0 10H21V11H0V10ZM0 12H21V13H0V12Z" fill="white"/>
</g>
<mask id="mask1_3_120" style="mask-type:alpha" maskUnits="userSpaceOnUse" x="0" y="0" width="21" height="15">
<path d="M19 0.5H2C1.17157 0.5 0.5 1.17157 0.5 2V13C0.5 13.8284 1.17157 14.5 2 14.5H19C19.8284 14.5 20.5 13.8284 20.5 13V2C20.5 1.17157 19.8284 0.5 19 0.5Z" fill="white"/>
</mask>
<g mask="url(#mask1_3_120)">
<path d="M19 0.5H2C1.17157 0.5 0.5 1.17157 0.5 2V13C0.5 13.8284 1.17157 14.5 2 14.5H19C19.8284 14.5 20.5 13.8284 20.5 13V2C20.5 1.17157 19.8284 0.5 19 0.5Z" stroke="black" stroke-opacity="0.1"/>
<path fill-rule="evenodd" clip-rule="evenodd" d="M8 2L10.5 3L13 2H8Z" fill="#FDD200"/>
</g>
</svg>
